**harm	**harte	**timestamp	**phrase	**leadinstrument	**kern
*M4/4	*M4/4	*	*	*	*
*d:	*d:	*	*	*	*d:
1r;	N	0	.	r	1r;
1r;	N	0.209	.	r	1r;
=1	=1	=1	=1	=1	=1
*>A_intro	*>A_intro	*>A_intro	*>A_intro	*>A_intro	*>A_intro
1r	N	8.94	newline	r	1r
=2	=2	=2	=2	=2	=2
1r	N	11.231	.	r	1r
=3	=3	=3	=3	=3	=3
1r	N	13.522	.	r	1r
=4	=4	=4	=4	=4	=4
*>B_instrumental	*>B_instrumental	*>B_instrumental	*>B_instrumental	*>B_instrumental	*>B_instrumental
1I	D:maj6	15.813	newline	r	1D 1f# 1a
=5	=5	=5	=5	=5	=5
1-VII	C:maj6	17.864	.	r	1C 1e 1g
=6	=6	=6	=6	=6	=6
1I	D:maj6	19.915	.	r	1D 1f# 1a
=7	=7	=7	=7	=7	=7
1-VI	B-:maj6	21.966	.	r	1B-- 1dd- 1ff-
=8	=8	=8	=8	=8	=8
1I	D:maj6	24.018	newline	r	1D 1f# 1a
=9	=9	=9	=9	=9	=9
1-VII	C:maj6	26.044	.	r	1C 1e 1g
=10	=10	=10	=10	=10	=10
1I	D:maj6	28.07	.	r	1D 1f# 1a
=11	=11	=11	=11	=11	=11
1-VI	B-:maj6	30.096	.	r	1B-- 1dd- 1ff-
=12	=12	=12	=12	=12	=12
*>B_verse	*>B_verse	*>B_verse	*>B_verse	*>B_verse	*>B_verse
1I	D:maj6	32.123	newline	voice	1D 1f# 1a
=13	=13	=13	=13	=13	=13
1-VII	C:maj6	34.155	.	voice	1C 1e 1g
=14	=14	=14	=14	=14	=14
1I	D:maj6	36.188	.	voice	1D 1f# 1a
=15	=15	=15	=15	=15	=15
1-VI	B-:maj6	38.221	.	voice	1B-- 1dd- 1ff-
=16	=16	=16	=16	=16	=16
1I	D:maj6	40.254	newline	voice	1D 1f# 1a
=17	=17	=17	=17	=17	=17
1-VII	C:maj6	42.285	.	voice	1C 1e 1g
=18	=18	=18	=18	=18	=18
1I	D:maj6	44.315	.	voice	1D 1f# 1a
=19	=19	=19	=19	=19	=19
1-VI	B-:maj6	46.346	.	voice	1B-- 1dd- 1ff-
=20	=20	=20	=20	=20	=20
*>C_prechorus	*>C_prechorus	*>C_prechorus	*>C_prechorus	*>C_prechorus	*>C_prechorus
1iv7	G:min7	48.377	newline	voice	1G 1b- 1dd 1ff
=21	=21	=21	=21	=21	=21
1-II7	E-:maj7	50.417	.	voice	1E- 1g 1b- 1dd
=22	=22	=22	=22	=22	=22
1iv7	G:min9	52.456	.	voice	1G 1b- 1dd 1ff
=23	=23	=23	=23	=23	=23
1v	A:min	54.496	.	voice	1A 1cc 1ee
=24	=24	=24	=24	=24	=24
1v	A:min	56.536	.	voice	1A 1cc 1ee
=25	=25	=25	=25	=25	=25
*>D_chorus	*>D_chorus	*>D_chorus	*>D_chorus	*>D_chorus	*>D_chorus
1I	D:maj	58.576	newline	voice	1D 1f# 1a
=26	=26	=26	=26	=26	=26
2-IIIc	F:maj/5	60.608	.	voice	2f- 2a- 2C-
2-VII	C:maj	61.625	.	voice	2C 2e 2g
=27	=27	=27	=27	=27	=27
1I	D:maj	62.641	.	voice	1D 1f# 1a
=28	=28	=28	=28	=28	=28
2-IIIc	F:maj/5	64.674	.	voice	2f- 2a- 2C-
2-VII	C:maj	65.691	.	voice	2C 2e 2g
=29	=29	=29	=29	=29	=29
1I	D:maj	66.707	newline	voice	1D 1f# 1a
=30	=30	=30	=30	=30	=30
1-III	F:5	68.745	.	voice	1F- 1a- 1cc-
=31	=31	=31	=31	=31	=31
1-VII	C:maj	70.782	.	voice	1C 1e 1g
=32	=32	=32	=32	=32	=32
2-III	F:maj	72.82	.	voice	2F- 2a- 2cc-
4-VII	C:maj	73.839	.	voice	4C 4e 4g
4IV	G:maj	74.348	.	voice	4G 4b 4dd
=33	=33	=33	=33	=33	=33
*>A_trans	*>A_trans	*>A_trans	*>A_trans	*>A_trans	*>A_trans
1r	N	74.857	newline	synthesizer	1r
=34	=34	=34	=34	=34	=34
1r	N	76.872	.	synthesizer	1r
=35	=35	=35	=35	=35	=35
*>B_verse	*>B_verse	*>B_verse	*>B_verse	*>B_verse	*>B_verse
1vi7b	B:min7/b3	78.887	newline	voice	1b- 1D- 1ff 1aa
=36	=36	=36	=36	=36	=36
1-VII	C:maj6	80.922	.	voice	1C 1e 1g
=37	=37	=37	=37	=37	=37
1vi7b	B:min7/b3	82.958	.	voice	1b- 1D- 1ff 1aa
=38	=38	=38	=38	=38	=38
1-VI7	B-:maj7	84.993	.	voice	1B-- 1dd- 1ff- 1aa
=39	=39	=39	=39	=39	=39
1vi7b	B:min7/b3	87.028	newline	voice	1b- 1D- 1ff 1aa
=40	=40	=40	=40	=40	=40
1-VII	C:maj6	89.064	.	voice	1C 1e 1g
=41	=41	=41	=41	=41	=41
1vi7b	B:min7/b3	91.101	.	voice	1b- 1D- 1ff 1aa
=42	=42	=42	=42	=42	=42
1-VI	B-:maj6	93.137	.	voice	1B-- 1dd- 1ff-
=43	=43	=43	=43	=43	=43
*>C_prechorus	*>C_prechorus	*>C_prechorus	*>C_prechorus	*>C_prechorus	*>C_prechorus
1iv7	G:min9	95.174	newline	voice	1G 1b- 1dd 1ff
=44	=44	=44	=44	=44	=44
1-II7	E-:maj9	97.214	.	voice	1E- 1g 1b- 1dd
=45	=45	=45	=45	=45	=45
1iv7	G:min9	99.253	.	voice	1G 1b- 1dd 1ff
=46	=46	=46	=46	=46	=46
1v7	A:min7	101.293	.	voice	1A 1cc 1ee 1gg
=47	=47	=47	=47	=47	=47
1v	A:1	103.333	.	voice	1A 1cc 1ee
=48	=48	=48	=48	=48	=48
*>D_chorus	*>D_chorus	*>D_chorus	*>D_chorus	*>D_chorus	*>D_chorus
1I	D:maj	105.372	newline	voice	1D 1f# 1a
=49	=49	=49	=49	=49	=49
2-VII	C:sus4(9)	107.417	.	voice	2C 2e 2g
2-VII	C:maj	108.439	.	voice	2C 2e 2g
=50	=50	=50	=50	=50	=50
1I	D:maj	109.461	.	voice	1D 1f# 1a
=51	=51	=51	=51	=51	=51
2-VII	C:sus4(9)	111.506	.	voice	2C 2e 2g
2-VII	C:maj	112.528	.	voice	2C 2e 2g
=52	=52	=52	=52	=52	=52
1I	D:maj	113.55	newline	voice	1D 1f# 1a
=53	=53	=53	=53	=53	=53
1-III	F:maj	115.573	.	voice	1F- 1a- 1cc-
=54	=54	=54	=54	=54	=54
1-VII	C:maj	117.595	.	voice	1C 1e 1g
=55	=55	=55	=55	=55	=55
2-III	F:maj	119.618	.	voice	2F- 2a- 2cc-
4-VII	C:maj	120.629	.	voice	4C 4e 4g
4IV	G:maj	121.134	.	voice	4G 4b 4dd
=56	=56	=56	=56	=56	=56
*>A_trans	*>A_trans	*>A_trans	*>A_trans	*>A_trans	*>A_trans
1r	N	121.64	newline	synthesizer	1r
=57	=57	=57	=57	=57	=57
1r	N	123.665	.	synthesizer	1r
=58	=58	=58	=58	=58	=58
*>E_bridge	*>E_bridge	*>E_bridge	*>E_bridge	*>E_bridge	*>E_bridge
1r	N	125.69	newline	synthesizer	1r
=59	=59	=59	=59	=59	=59
1r	N	127.737	.	synthesizer	1r
=60	=60	=60	=60	=60	=60
1r	N	129.784	.	synthesizer	1r
=61	=61	=61	=61	=61	=61
1r	N	131.83	.	synthesizer	1r
=62	=62	=62	=62	=62	=62
1r	N	133.877	newline	synthesizer	1r
=63	=63	=63	=63	=63	=63
1r	N	135.914	.	synthesizer	1r
=64	=64	=64	=64	=64	=64
1r	N	137.952	.	synthesizer	1r
=65	=65	=65	=65	=65	=65
1r	N	139.989	.	synthesizer	1r
=66	=66	=66	=66	=66	=66
2ii	E:min	142.026	newline	voice	2E 2g 2b
2iie	E:min/2	143.042	.	voice	2E 2g 2b
=67	=67	=67	=67	=67	=67
2ii7b	E:min9/b3	144.057	.	voice	2e 2G 2b 2dd
2ii7f	E:min9/4	145.073	.	voice	2E 2g 2b 2dd
=68	=68	=68	=68	=68	=68
2i	D:min	146.089	.	voice	2D 2f 2a
2ie	D:min/2	147.105	.	voice	2D 2f 2a
=69	=69	=69	=69	=69	=69
2i7b	D:min7/b3	148.121	.	voice	2d 2F 2a 2cc#
2i7	D:min7	149.136	.	voice	2D 2f 2a 2cc#
=70	=70	=70	=70	=70	=70
2ii	E:min	150.152	newline	voice	2E 2g 2b
2iie	E:min/2	151.169	.	voice	2E 2g 2b
=71	=71	=71	=71	=71	=71
2ii7b	E:min9/b3	152.185	.	voice	2e 2G 2b 2dd
2ii7f	E:min9/4	153.201	.	voice	2E 2g 2b 2dd
=72	=72	=72	=72	=72	=72
1i7	D:min7	154.217	.	voice	1D 1f 1a 1cc#
=73	=73	=73	=73	=73	=73
1i7	D:min7	156.25	.	voice	1D 1f 1a 1cc#
=74	=74	=74	=74	=74	=74
*>C_prechorus	*>C_prechorus	*>C_prechorus	*>C_prechorus	*>C_prechorus	*>C_prechorus
1iv7	G:min7	158.282	newline	voice	1G 1b- 1dd 1ff
=75	=75	=75	=75	=75	=75
1-II7	E-:maj7	160.314	.	voice	1E- 1g 1b- 1dd
=76	=76	=76	=76	=76	=76
1iv7	G:min9	162.346	.	voice	1G 1b- 1dd 1ff
=77	=77	=77	=77	=77	=77
1v	A:min	164.378	.	voice	1A 1cc 1ee
=78	=78	=78	=78	=78	=78
1v	A:min	166.409	.	voice	1A 1cc 1ee
=79	=79	=79	=79	=79	=79
*>D_chorus	*>D_chorus	*>D_chorus	*>D_chorus	*>D_chorus	*>D_chorus
1I	D:maj	168.441	newline	voice	1D 1f# 1a
=80	=80	=80	=80	=80	=80
2-IIIc	F:maj/5	170.485	.	voice	2f- 2a- 2C-
2-VII	C:maj	171.507	.	voice	2C 2e 2g
=81	=81	=81	=81	=81	=81
1I	D:maj	172.528	.	voice	1D 1f# 1a
=82	=82	=82	=82	=82	=82
2-IIIc	F:maj/5	174.572	.	voice	2f- 2a- 2C-
2-VII	C:maj	175.594	.	voice	2C 2e 2g
=83	=83	=83	=83	=83	=83
1I	D:maj	176.616	newline	voice	1D 1f# 1a
=84	=84	=84	=84	=84	=84
1-III	F:maj	178.646	.	voice	1F- 1a- 1cc-
=85	=85	=85	=85	=85	=85
1-VII	C:maj	180.676	.	voice	1C 1e 1g
=86	=86	=86	=86	=86	=86
2-III	F:maj	182.707	.	voice	2F- 2a- 2cc-
4-VII	C:maj	183.722	.	voice	4C 4e 4g
4IV	G:maj	184.229	.	voice	4G 4b 4dd
=87	=87	=87	=87	=87	=87
*>D_chorus	*>D_chorus	*>D_chorus	*>D_chorus	*>D_chorus	*>D_chorus
1I	D:maj	184.737	newline	voice	1D 1f# 1a
=88	=88	=88	=88	=88	=88
2-IIIc	F:maj/5	186.77	.	voice	2f- 2a- 2C-
2-VII	C:maj	187.786	.	voice	2C 2e 2g
=89	=89	=89	=89	=89	=89
1I	D:maj	188.802	.	voice	1D 1f# 1a
=90	=90	=90	=90	=90	=90
2-IIIc	F:maj/5	190.835	.	voice	2f- 2a- 2C-
2-VII	C:maj	191.851	.	voice	2C 2e 2g
=91	=91	=91	=91	=91	=91
1I	D:maj	192.868	newline	voice	1D 1f# 1a
=92	=92	=92	=92	=92	=92
1-III	F:maj	194.909	.	voice	1F- 1a- 1cc-
=93	=93	=93	=93	=93	=93
1-VII	C:maj	196.951	.	voice	1C 1e 1g
=94	=94	=94	=94	=94	=94
2-III	F:maj	198.992	.	voice	2F- 2a- 2cc-
4-VII	C:maj	200.013	.	voice	4C 4e 4g
4IV	G:maj	200.523	.	voice	4G 4b 4dd
=95	=95	=95	=95	=95	=95
*>D_chorus	*>D_chorus	*>D_chorus	*>D_chorus	*>D_chorus	*>D_chorus
1I	D:maj	201.034	newline	voice	1D 1f# 1a
=96	=96	=96	=96	=96	=96
2-IIIc	F:maj/5	203.066	.	voice	2f- 2a- 2C-
2-VII	C:maj	204.082	.	voice	2C 2e 2g
=97	=97	=97	=97	=97	=97
1I	D:maj	205.098	.	voice	1D 1f# 1a
=98	=98	=98	=98	=98	=98
2-IIIc	F:maj/5	207.13	.	voice	2f- 2a- 2C-
2-VII	C:maj	208.146	.	voice	2C 2e 2g
=99	=99	=99	=99	=99	=99
1I	D:maj	209.162	newline	voice	1D 1f# 1a
=100	=100	=100	=100	=100	=100
1-III	F:maj	211.2	.	voice	1F- 1a- 1cc-
=101	=101	=101	=101	=101	=101
1-VII	C:maj	213.238	.	voice	1C 1e 1g
=102	=102	=102	=102	=102	=102
2-III	F:maj	215.276	.	voice	2F- 2a- 2cc-
4-VII	C:maj	216.295	.	voice	4C 4e 4g
4IV	G:maj	216.805	.	voice	4G 4b 4dd
=103	=103	=103	=103	=103	=103
*>D_fadeout	*>D_fadeout	*>D_fadeout	*>D_fadeout	*>D_fadeout	*>D_fadeout
1I	D:maj	217.314	newline	voice	1D 1f# 1a
=104	=104	=104	=104	=104	=104
2-IIIc	F:maj/5	219.348	.	voice	2f- 2a- 2C-
2-VII	C:maj	220.365	.	voice	2C 2e 2g
=105	=105	=105	=105	=105	=105
1I	D:maj	221.382	.	voice	1D 1f# 1a
=106	=106	=106	=106	=106	=106
2-IIIc	F:maj/5	223.416	.	voice	2f- 2a- 2C-
2-VII	C:maj	224.432	.	voice	2C 2e 2g
=107	=107	=107	=107	=107	=107
1I	D:maj	225.449	newline	voice	1D 1f# 1a
=108	=108	=108	=108	=108	=108
1-III	F:maj	227.375	.	voice	1F- 1a- 1cc-
=109	=109	=109	=109	=109	=109
1-VII	C:maj	229.301	.	voice	1C 1e 1g
=110	=110	=110	=110	=110	=110
2-III	F:maj	231.227	.	voice	2F- 2a- 2cc-
4-VII	C:maj	232.19	.	voice	4C 4e 4g
4IV	G:maj	232.671	.	voice	4G 4b 4dd
=111	=111	=111	=111	=111	=111
1I	D:maj	233.153	.	voice	1D 1f# 1a
1r;	N	235.079	.	r	1r;
1r;	N	237.401	.	r	1r;
*-	*-	*-	*-	*-	*-
!!!OTL: Kisses On The Wind
!!!COC: Neneh Cherry
!!!BillboardChartDate: 1989/10/07, 1989/08/19
!!!BillboardPeak: 8, 8
!!!BillboardWeeksOnChart: 14, 14
!!!SampleTargetRank: 23, 32
!!!SampleActualRank: 24, 32
!!!SampleID#: 370, 909
!!!RDF**harmony: **recip + pitch class of root + harmonic quality
!!!RDF**harte: Chris Harte's syntax, used by MIREX
!!!RDF**phrase: newline = linebreak in original McGill transcription
!!!RDF**timestamp: McGill audio timestamp in seconds
!!!RDF**leadinstrument: original McGill primary instrumentation annotation
!!!RDT: 2017/01/12/
!!!ENC: Nathaniel Condit-Schultz
!!!EST: Awating manual error checking and editing.
